X: 1
T:Old Rocking Chair, The
C:Ralph Page
S:Donna Hind's Notebooks
Z:Nigel Gatherer
M:6/8
L:1/8
K:A
ED|CEE DFF|Ecc cBc|dBB BAB|cAF E2 D|CEE DFF|
EAB cBc|dBG EFG|ABA A :: cd|ecA efe|dBc dfd|cec ABc|
dcd Bcd|ecA efe|dBc ded|cBc dBG|EAG A:|]
